icons/appointment.svg

<svg id="Layer_5" enable-background="new 0 0 64 64" height="512" viewBox="0 0 64 64" width="512" xmlns="http://www.w3.org/2000/svg"><g><g><g><path d="m62 28v32c0 1.1-.9 2-2 2h-46c.61 0 1.17-.35 1.45-.89l4.55-9.11v-20-4z" fill="#e6e9ed"/></g><g><path d="m62 22v6h-42v-3.6c.91-.53 1.75-1.17 2.49-1.91s1.38-1.58 1.91-2.49h35.6c1.1 0 2 .9 2 2z" fill="#b4dd7f"/></g><g><path d="m26 42h8v6h-8z" fill="#b4dd7f"/></g><g><path d="m38 32h8v6h-8z" fill="#fcd770"/></g><g><path d="m26 32h8v6h-8z" fill="#ff826e"/></g><g><path d="m38 52h8v6h-8z" fill="#fcd770"/></g><g><path d="m50 32h8v6h-8z" fill="#ff826e"/></g><g><path d="m38 42h8v6h-8z" fill="#ff826e"/></g><g><path d="m26 52h8v6h-8z" fill="#b4dd7f"/></g><g><path d="m8 32h12v20h-12z" fill="#fcd770"/></g><g><path d="m20 28v4h-12v-7.6c1.76 1.02 3.81 1.6 6 1.6s4.24-.58 6-1.6z" fill="#aab2bd"/></g><g><path d="m20 52-4.55 9.11c-.28.54-.84.89-1.45.89s-1.17-.35-1.45-.89l-4.55-9.11z" fill="#aab2bd"/></g><g><path d="m26 14c0 2.18-.58 4.23-1.6 6-.53.91-1.17 1.75-1.91 2.49s-1.58 1.38-2.49 1.91c-1.76 1.02-3.81 1.6-6 1.6s-4.24-.58-6-1.6c-.91-.53-1.75-1.17-2.49-1.91-2.17-2.17-3.51-5.17-3.51-8.49s1.34-6.32 3.51-8.49 5.17-3.51 8.49-3.51 6.32 1.34 8.49 3.51 3.51 5.17 3.51 8.49z" fill="#69d6f4"/></g><g><path d="m14 12c1.1 0 2 .9 2 2s-.9 2-2 2-2-.9-2-2c0-.55.22-1.05.59-1.41.36-.37.86-.59 1.41-.59z" fill="#e6e9ed"/></g></g><g><path d="m15 16.816c1.161-.414 2-1.514 2-2.816 0-1.654-1.346-3-3-3-.462 0-.894.113-1.285.301l-3.008-3.008-1.414 1.414 3.008 3.008c-.188.391-.301.823-.301 1.285 0 1.302.839 2.402 2 2.816v2.184h2zm-1-3.816c.552 0 1 .448 1 1s-.448 1-1 1-1-.448-1-1 .448-1 1-1z"/><path d="m13 35h2v2h-2z"/><path d="m13 47h2v2h-2z"/><path d="m13 43h2v2h-2z"/><path d="m13 39h2v2h-2z"/><path d="m60 19h-34.003c.644-1.54 1.003-3.229 1.003-5 0-7.168-5.832-13-13-13s-13 5.832-13 13c0 4.59 2.398 8.623 6 10.937v27.299l4.658 9.317c.447.892 1.345 1.447 2.342 1.447h46c1.654 0 3-1.346 3-3v-38c0-1.654-1.346-3-3-3zm0 2c.552 0 1 .448 1 1v5h-40v-2.063c1.579-1.014 2.922-2.358 3.937-3.937zm-41 30h-10v-18h10zm-6-28v1.949c-2.283-.207-4.366-1.111-6.034-2.501l1.377-1.377-1.414-1.414-1.377 1.377c-1.391-1.668-2.294-3.751-2.501-6.034h1.949v-2h-1.949c.207-2.283 1.111-4.366 2.501-6.034l1.377 1.377 1.414-1.414-1.377-1.377c1.668-1.391 3.751-2.294 6.034-2.501v1.949h2v-1.949c2.283.207 4.366 1.111 6.034 2.501l-1.377 1.377 1.414 1.414 1.377-1.377c1.391 1.667 2.294 3.751 2.501 6.034h-1.949v2h1.949c-.207 2.283-1.111 4.366-2.501 6.034l-1.377-1.377-1.414 1.414 1.377 1.377c-1.667 1.391-3.751 2.294-6.034 2.501v-1.949zm1 4c1.771 0 3.46-.359 5-1.003v5.003h-10v-5.003c1.54.644 3.229 1.003 5 1.003zm-.553 33.658-3.829-7.658h8.764l-3.829 7.657c-.211.424-.895.423-1.106.001zm46.553.342h-43.382l4.382-8.764v-23.236h40v31c0 .552-.448 1-1 1z"/><path d="m25 39h10v-8h-10zm2-6h6v4h-6z"/><path d="m37 39h10v-8h-10zm2-6h6v4h-6z"/><path d="m25 49h10v-8h-10zm2-6h6v4h-6z"/><path d="m37 49h10v-8h-10zm2-6h6v4h-6z"/><path d="m25 59h10v-8h-10zm2-6h6v4h-6z"/><path d="m37 59h10v-8h-10zm2-6h6v4h-6z"/><path d="m59 31h-10v8h10zm-2 6h-6v-4h6z"/><path d="m53 45.586-1.293-1.293-1.414 1.414 2.707 2.707 6.707-6.707-1.414-1.414z"/><path d="m53 56.586-1.293-1.293-1.414 1.414 2.707 2.707 6.707-6.707-1.414-1.414z"/></g></g></svg>

<?xml version="1.0" encoding="UTF-8" standalone="no"?>
<svg
   xmlns:dc="http://purl.org/dc/elements/1.1/"
   xmlns:cc="http://creativecommons.org/ns#"
   xmlns:rdf="http://www.w3.org/1999/02/22-rdf-syntax-ns#"
   xmlns:svg="http://www.w3.org/2000/svg"
   xmlns="http://www.w3.org/2000/svg"
   xmlns:sodipodi="http://sodipodi.sourceforge.net/DTD/sodipodi-0.dtd"
   xmlns:inkscape="http://www.inkscape.org/namespaces/inkscape"
   inkscape:version="1.0 (4035a4fb49, 2020-05-01)"
   sodipodi:docname="appointment.svg"
   version="1.1"
   width="24"
   viewBox="0 0 5.4 5.4"
   height="24"
   enable-background="new 0 0 64 64"
   id="Layer_5">
  <metadata
     id="metadata99">
    <rdf:RDF>
      <cc:Work
         rdf:about="">
        <dc:format>image/svg+xml</dc:format>
        <dc:type
           rdf:resource="http://purl.org/dc/dcmitype/StillImage" />
        <dc:title></dc:title>
      </cc:Work>
    </rdf:RDF>
  </metadata>
  <defs
     id="defs97" />
  <sodipodi:namedview
     inkscape:current-layer="Layer_5"
     inkscape:window-maximized="1"
     inkscape:window-y="0"
     inkscape:window-x="0"
     inkscape:cy="24.58612"
     inkscape:cx="50.664767"
     inkscape:zoom="15.75"
     scale-x="0.225"
     showgrid="false"
     id="namedview95"
     inkscape:window-height="1417"
     inkscape:window-width="2560"
     inkscape:pageshadow="2"
     inkscape:pageopacity="0"
     guidetolerance="10"
     gridtolerance="10"
     objecttolerance="10"
     borderopacity="1"
     bordercolor="#666666"
     pagecolor="#ffffff" />
  <g
     transform="matrix(0.08531466,0,0,0.08531466,-0.06083484,-0.02547837)"
     id="g92">
    <g
       id="g58">
      <g
         id="g4">
        <path
           id="path2"
           fill="#e6e9ed"
           d="m 62,28 v 32 c 0,1.1 -0.9,2 -2,2 H 14 c 0.61,0 1.17,-0.35 1.45,-0.89 L 20,52 V 32 28 Z" />
      </g>
      <g
         id="g8">
        <path
           id="path6"
           fill="#b4dd7f"
           d="m 62,22 v 6 H 20 v -3.6 c 0.91,-0.53 1.75,-1.17 2.49,-1.91 0.74,-0.74 1.38,-1.58 1.91,-2.49 H 60 c 1.1,0 2,0.9 2,2 z" />
      </g>
      <g
         id="g12">
        <path
           id="path10"
           fill="#b4dd7f"
           d="m 26,42 h 8 v 6 h -8 z" />
      </g>
      <g
         id="g16">
        <path
           id="path14"
           fill="#fcd770"
           d="m 38,32 h 8 v 6 h -8 z" />
      </g>
      <g
         id="g20">
        <path
           id="path18"
           fill="#ff826e"
           d="m 26,32 h 8 v 6 h -8 z" />
      </g>
      <g
         id="g24">
        <path
           id="path22"
           fill="#fcd770"
           d="m 38,52 h 8 v 6 h -8 z" />
      </g>
      <g
         id="g28">
        <path
           id="path26"
           fill="#ff826e"
           d="m 50,32 h 8 v 6 h -8 z" />
      </g>
      <g
         id="g32">
        <path
           id="path30"
           fill="#ff826e"
           d="m 38,42 h 8 v 6 h -8 z" />
      </g>
      <g
         id="g36">
        <path
           id="path34"
           fill="#b4dd7f"
           d="m 26,52 h 8 v 6 h -8 z" />
      </g>
      <g
         id="g40">
        <path
           id="path38"
           fill="#fcd770"
           d="M 8,32 H 20 V 52 H 8 Z" />
      </g>
      <g
         id="g44">
        <path
           id="path42"
           fill="#aab2bd"
           d="m 20,28 v 4 H 8 v -7.6 c 1.76,1.02 3.81,1.6 6,1.6 2.19,0 4.24,-0.58 6,-1.6 z" />
      </g>
      <g
         id="g48">
        <path
           id="path46"
           fill="#aab2bd"
           d="m 20,52 -4.55,9.11 C 15.17,61.65 14.61,62 14,62 13.39,62 12.83,61.65 12.55,61.11 L 8,52 Z" />
      </g>
      <g
         id="g52">
        <path
           id="path50"
           fill="#69d6f4"
           d="m 26,14 c 0,2.18 -0.58,4.23 -1.6,6 -0.53,0.91 -1.17,1.75 -1.91,2.49 C 21.75,23.23 20.91,23.87 20,24.4 18.24,25.42 16.19,26 14,26 11.81,26 9.76,25.42 8,24.4 7.09,23.87 6.25,23.23 5.51,22.49 3.34,20.32 2,17.32 2,14 2,10.68 3.34,7.68 5.51,5.51 7.68,3.34 10.68,2 14,2 17.32,2 20.32,3.34 22.49,5.51 24.66,7.68 26,10.68 26,14 Z" />
      </g>
      <g
         id="g56">
        <path
           id="path54"
           fill="#e6e9ed"
           d="m 14,12 c 1.1,0 2,0.9 2,2 0,1.1 -0.9,2 -2,2 -1.1,0 -2,-0.9 -2,-2 0,-0.55 0.22,-1.05 0.59,-1.41 C 12.95,12.22 13.45,12 14,12 Z" />
      </g>
    </g>
    <g
       id="g90">
      <path
         id="path60"
         d="m 15,16.816 c 1.161,-0.414 2,-1.514 2,-2.816 0,-1.654 -1.346,-3 -3,-3 -0.462,0 -0.894,0.113 -1.285,0.301 L 9.707,8.293 8.293,9.707 11.301,12.715 C 11.113,13.106 11,13.538 11,14 c 0,1.302 0.839,2.402 2,2.816 V 19 h 2 z M 14,13 c 0.552,0 1,0.448 1,1 0,0.552 -0.448,1 -1,1 -0.552,0 -1,-0.448 -1,-1 0,-0.552 0.448,-1 1,-1 z" />
      <path
         id="path62"
         d="m 13,35 h 2 v 2 h -2 z" />
      <path
         id="path64"
         d="m 13,47 h 2 v 2 h -2 z" />
      <path
         id="path66"
         d="m 13,43 h 2 v 2 h -2 z" />
      <path
         id="path68"
         d="m 13,39 h 2 v 2 h -2 z" />
      <path
         id="path70"
         d="M 60,19 H 25.997 C 26.641,17.46 27,15.771 27,14 27,6.832 21.168,1 14,1 6.832,1 1,6.832 1,14 c 0,4.59 2.398,8.623 6,10.937 v 27.299 l 4.658,9.317 C 12.105,62.445 13.003,63 14,63 h 46 c 1.654,0 3,-1.346 3,-3 V 22 c 0,-1.654 -1.346,-3 -3,-3 z m 0,2 c 0.552,0 1,0.448 1,1 v 5 H 21 V 24.937 C 22.579,23.923 23.922,22.579 24.937,21 Z M 19,51 H 9 V 33 H 19 Z M 13,23 v 1.949 C 10.717,24.742 8.634,23.838 6.966,22.448 L 8.343,21.071 6.929,19.657 5.552,21.034 C 4.161,19.366 3.258,17.283 3.051,15 H 5 V 13 H 3.051 C 3.258,10.717 4.162,8.634 5.552,6.966 L 6.929,8.343 8.343,6.929 6.966,5.552 C 8.634,4.161 10.717,3.258 13,3.051 V 5 h 2 V 3.051 c 2.283,0.207 4.366,1.111 6.034,2.501 l -1.377,1.377 1.414,1.414 1.377,-1.377 c 1.391,1.667 2.294,3.751 2.501,6.034 H 23 v 2 h 1.949 c -0.207,2.283 -1.111,4.366 -2.501,6.034 l -1.377,-1.377 -1.414,1.414 1.377,1.377 C 19.367,23.839 17.283,24.742 15,24.949 V 23 Z m 1,4 c 1.771,0 3.46,-0.359 5,-1.003 V 31 H 9 V 25.997 C 10.54,26.641 12.229,27 14,27 Z M 13.447,60.658 9.618,53 h 8.764 l -3.829,7.657 c -0.211,0.424 -0.895,0.423 -1.106,0.001 z M 60,61 H 16.618 L 21,52.236 V 29 h 40 v 31 c 0,0.552 -0.448,1 -1,1 z" />
      <path
         id="path72"
         d="M 25,39 H 35 V 31 H 25 Z m 2,-6 h 6 v 4 h -6 z" />
      <path
         id="path74"
         d="M 37,39 H 47 V 31 H 37 Z m 2,-6 h 6 v 4 h -6 z" />
      <path
         id="path76"
         d="M 25,49 H 35 V 41 H 25 Z m 2,-6 h 6 v 4 h -6 z" />
      <path
         id="path78"
         d="M 37,49 H 47 V 41 H 37 Z m 2,-6 h 6 v 4 h -6 z" />
      <path
         id="path80"
         d="M 25,59 H 35 V 51 H 25 Z m 2,-6 h 6 v 4 h -6 z" />
      <path
         id="path82"
         d="M 37,59 H 47 V 51 H 37 Z m 2,-6 h 6 v 4 h -6 z" />
      <path
         id="path84"
         d="M 59,31 H 49 v 8 h 10 z m -2,6 h -6 v -4 h 6 z" />
      <path
         id="path86"
         d="M 53,45.586 51.707,44.293 50.293,45.707 53,48.414 59.707,41.707 58.293,40.293 Z" />
      <path
         id="path88"
         d="M 53,56.586 51.707,55.293 50.293,56.707 53,59.414 59.707,52.707 58.293,51.293 Z" />
    </g>
  </g>
</svg>
